X: 4405
T: "GENEVIEVE" MAZURKA
R: Mazurka
%R: mazurka
B: James Kerr "Merry Melodies" v.4 p.44 #405
Z: 2016 John Chambers <jc:trillian.mit.edu>
M: 3/4
L: 1/8
K: D
A2 |\
f>^e f2 g2 | f>=f e2 A2 | e>^d e2 f2 | (3(edB) A2 A2 |\
f>^e f2 a2 | a>^g =g2 g2 | f>=e f2 A2 | e>d d2 H:|
|: d2 |\
e>f g2 B2 | A>d f2 d2 | e>f a2 g2 | d>e f2 zf |\
f>f g2 f2 | e>f B2 c2 | d>d e2 d2 | c>B "_D.C."f2 :|

%%sep 1 1 500
%%sep 1 1 500

